X:40
T:Humours of Whiskey, The
R:slip jig
H:See also #37, #77
D:Altan: Altan.
Z:id:hn-slipjig-40
M:9/8
K:Bm
gfe fBB fBB | gfe fBB fga | gfe fBB fBB | agf efd cBA :|
|: d2e fdf ecA | d2e fed gfe | d2e fdf efg | agf efd cBA :|
P:variations
|: fge fBB fBB | fge fBB fga | fge fBB fBB | agf efd cBA :|
|: d2e ~f3 ecA | d2e ~f3 gfe | d2e ~f3 efg | agf efd cBA :|
<end>
<start>
